!!!OTL: Der kleine Taenzer
!!!ARE: Europa, Mitteleuropa, Deutschland
!!!SCT: A0503
!!!YEM: Copyright 1995, estate of Helmut Schaffrath.
**kern
*ICvox
*Ivox
*M3/2
*k[f#c#]
*D:
{2a
=1
1dd
2a
=2
1dd
2a
=3
1ccn
2b
=4
1a}
{2a
=5
1a
2ccn
=6
2b
2b
2ccn
=7
1.dd
=8
1ccn}
{2ccn
=9
2.ccn
4b
2a
=10
1a
2g
=11
1.a
=12
1a}
{2dd
=13
4cc#
4b
4cc#
4dd
2cc#
=14
1dd}
==
!!!AGN: Romanze, Ballade, Lied, Kinderlied
!! M. Franck, Fasc. Quodl. 1611 No. 2.
!!!ONB: ESAC (Essen Associative Code) Database: ALTDEU
!!!AMT: simple triple
!!!AIN: vox
!!!EED: Helmut Schaffrath
!!!EEV: 1.0
*-
